src/assets/svg/icons/fa/nuevos/classic/thin/square-parking classic thin.svg

<svg xmlns="http://www.w3.org/2000/svg" viewBox="0 0 448 512"><!--! Font Awesome Pro 6.4.0 by @fontawesome - https://fontawesome.com License - https://fontawesome.com/license (Commercial License) Copyright 2023 Fonticons, Inc. --><path d="M64 48C37.5 48 16 69.5 16 96V416c0 26.5 21.5 48 48 48H384c26.5 0 48-21.5 48-48V96c0-26.5-21.5-48-48-48H64zM0 96C0 60.7 28.7 32 64 32H384c35.3 0 64 28.7 64 64V416c0 35.3-28.7 64-64 64H64c-35.3 0-64-28.7-64-64V96zm160 32h96c48.6 0 88 39.4 88 88s-39.4 88-88 88H160v72c0 4.4-3.6 8-8 8s-8-3.6-8-8V296 144c0-8.8 7.2-16 16-16zm96 160c39.8 0 72-32.2 72-72s-32.2-72-72-72l-96 0V288h96z"/></svg>

<svg xmlns="http://www.w3.org/2000/svg" viewBox="0 0 448 512"><path d="M256 128C304.6 128 344 167.4 344 216C344 264.6 304.6 304 256 304H160V376C160 380.4 156.4 384 152 384C147.6 384 144 380.4 144 376V144C144 135.2 151.2 128 160 128H256zM328 216C328 176.2 295.8 144 256 144H160V288H256C295.8 288 328 255.8 328 216zM0 96C0 60.65 28.65 32 64 32H384C419.3 32 448 60.65 448 96V416C448 451.3 419.3 480 384 480H64C28.65 480 0 451.3 0 416V96zM16 96V416C16 442.5 37.49 464 64 464H384C410.5 464 432 442.5 432 416V96C432 69.49 410.5 48 384 48H64C37.49 48 16 69.49 16 96z"/></svg>
